src/img/uv.svg

<svg width="17" height="17" viewBox="0 0 17 17" fill="none" xmlns="http://www.w3.org/2000/svg">
<g clip-path="url(#clip0_48_150)">
<path d="M8.5 13.5469C11.2873 13.5469 13.5469 11.2873 13.5469 8.5C13.5469 5.71269 11.2873 3.45312 8.5 3.45312C5.71269 3.45312 3.45312 5.71269 3.45312 8.5C3.45312 11.2873 5.71269 13.5469 8.5 13.5469Z" fill="white"/>
<path d="M8.5 0.484375V2.26562" stroke="white" stroke-miterlimit="10" stroke-linecap="round"/>
<path d="M8.5 14.7344V16.5156" stroke="white" stroke-miterlimit="10" stroke-linecap="round"/>
<path d="M16.5156 8.5H14.7344" stroke="white" stroke-miterlimit="10" stroke-linecap="round"/>
<path d="M2.26562 8.5H0.484375" stroke="white" stroke-miterlimit="10" stroke-linecap="round"/>
<path d="M14.1673 2.83276L12.9086 4.09151" stroke="white" stroke-miterlimit="10" stroke-linecap="round"/>
<path d="M4.09139 12.9087L2.83264 14.1674" stroke="white" stroke-miterlimit="10" stroke-linecap="round"/>
<path d="M14.1673 14.1674L12.9086 12.9087" stroke="white" stroke-miterlimit="10" stroke-linecap="round"/>
<path d="M4.09139 4.09151L2.83264 2.83276" stroke="white" stroke-miterlimit="10" stroke-linecap="round"/>
<path d="M6.35948 7.23828V9.00469C6.35948 9.53313 6.55839 9.80031 6.91464 9.80031C7.27089 9.80031 7.4787 9.545 7.4787 9.00469V7.23828H8.17042V8.95719C8.17042 9.90422 7.69245 10.3525 6.89386 10.3525C6.09526 10.3525 5.66479 9.925 5.66479 8.94828V7.23828H6.35948Z" fill="#3D3C30"/>
<path d="M9.49453 10.305L8.5 7.23828H9.27187L9.64594 8.53562C9.74984 8.90078 9.84484 9.25109 9.91906 9.63109C9.99625 9.26297 10.0912 8.89781 10.1952 8.5475L10.587 7.23828H11.3233L10.302 10.305H9.49453Z" fill="#3D3C30"/>
</g>
<defs>
<clipPath id="clip0_48_150">
<rect width="17" height="17" fill="white"/>
</clipPath>
</defs>
</svg>

<svg xmlns="http://www.w3.org/2000/svg" width="17" height="17" fill="none"><g clip-path="url(#a)"><path fill="#fff" d="M8.5 13.547a5.047 5.047 0 1 0 0-10.094 5.047 5.047 0 0 0 0 10.094"/><path stroke="#fff" stroke-linecap="round" stroke-miterlimit="10" d="M8.5.484v1.782m0 12.468v1.782M16.516 8.5h-1.782m-12.468 0H.484m13.683-5.667L12.91 4.092m-8.819 8.817-1.258 1.258m11.334 0L12.91 12.91M4.091 4.092l-1.258-1.26"/><path fill="#3D3C30" d="M6.36 7.238v1.767c0 .528.198.795.555.795.356 0 .564-.255.564-.795V7.238h.691v1.72c0 .946-.478 1.394-1.276 1.394-.799 0-1.23-.427-1.23-1.404v-1.71zm3.135 3.067L8.5 7.238h.772l.374 1.298c.104.365.199.715.273 1.095.077-.368.172-.733.276-1.084l.392-1.309h.736l-1.021 3.067z"/></g><defs><clipPath id="a"><path fill="#fff" d="M0 0h17v17H0z"/></clipPath></defs></svg>
